X:39
T:If All The World Were Paper.
K:Fmaj clef=treble
M:4/4
M:4/4
M:6/8
L:1/8
c' [| "Bb"d2c "C"d2e | "F"f3 F2G | "(Dm)"A2G A2B | "Am"c3-c2 A |
"Bb"B2AB2c | "Gm"d2B G2F | "C"e2c d2e |1 "F"(f3f2) c :|2 "F"(f3f2) F ||
[||:"C"e2de2f | "C"g3c2c | "F"f2e f2g | "(Dm)"a3-a2 a |
"Bb"b2ag2f | "E"e2d c2g | "Bb"c'2cd2e |1 "F"f3-f2 f :|2 "F"f3-f2 c' 
%Warning : No repeat expected, found :|
:|

